!!!OTL: Tuichuan haozi
!!!ARE: Asia, China, Shanxi, Hequ
!! I, 322
!!!SCT: C1440
!!!YEM: Copyright 1995, estate of Helmut Schaffrath.
**kern
*ICvox
*Ivox
*M2/4
*k[b-e-]
*B-:
{8gg
16gg
16ff
8gg
16ddd
16ccc
=1
2bb-
=2
8gg
16gg
16ff
8gg
16ddd
16ccc
=3
2bb-}
=4
{8.ff
16bb-
8gg
8eee-
=5
8ddd
16ccc
16bb-
4ff
=6
8ddd
8ff
16gg
16ff
16dd
16cc
=7
2b-}
=8
{2ddd
=9
8ddd
16ddd
16ccc
4bb-
=10
8ddd
16ddd
16ddd
8ccc
8bb-
=11
8ccc
8ddd
16aa
16gg
16ff
16gg
=12
4bb-
4bb-}
=13
{16aa
16gg
16ff
16gg
4ccc
=14
8ccc
16ddd
16ccc
8bb-
16ccc
16bb-
=15
8gg
8ff
8dd
16cc
16dd
=16
4ff
4ff}
=17
{8ddd
16ddd
16ccc
4bb-
=18
8ddd
16ddd
16ccc
4bb-
=19
8dd
4bb-
16aa
16gg
=20
2ff}
=21
{8dd
8bb-
8aa
8gg
=22
8aa
16aa
16gg
4ff
=23
8ff
8cc
8dd
16dd
16cc
=24
2b-}
=25
{8dd
8bb-
8aa
8gg
=26
8aa
16aa
16gg
4ff
=27
8ff
8cc
8dd
16dd
16cc
=28
2b-}
=29
{8gg
16gg
16ff
8gg
16ddd
16ccc
=30
2bb-
=31
8gg
16gg
16ff
8gg
16ddd
16ccc
=32
2bb-}
=33
{8.ff
16bb-
8gg
8eee-
=34
8ddd
16ccc
16bb-
4ff
=35
8ddd
8ff
16gg
16ff
16dd
16cc
=36
2b-}
==
!!!AGN: Haozi, Xingchuan haozi
!!!ONB: ESAC (Essen Associative Code) Database: HUANG
!!!AMT: simple duple
!!!AIN: vox
!!!EED: Helmut Schaffrath
!!!EEV: 1.0
*-
